svgs/sharp-regular/swatchbook.svg

<svg xmlns="http://www.w3.org/2000/svg" viewBox="0 0 512 512"><!--! Font Awesome Pro 6.4.2 by @fontawesome - https://fontawesome.com License - https://fontawesome.com/license (Commercial License) Copyright 2023 Fonticons, Inc. --><path d="M0 400c0 61.9 50.1 112 112 112H488h24V488 312 288H488 385.9l79-79 17-17-17-17L337 47l-17-17L303 47l-79 79V24 0H200 24 0V24 400zm209.9 64l128-128H464V464H209.9zM414.1 192L224 382.1V193.9l96-96L414.1 192zM112 464c-35.3 0-64-28.7-64-64V304H176v96c0 35.3-28.7 64-64 64zM48 256V176H176v80H48zm0-128V48l128 0v80H48zm64 296a24 24 0 1 0 0-48 24 24 0 1 0 0 48z"/></svg>

<svg xmlns="http://www.w3.org/2000/svg" viewBox="0 0 512 512"><!--! Font Awesome Pro 6.6.0 by @fontawesome - https://fontawesome.com License - https://fontawesome.com/license (Commercial License) Copyright 2024 Fonticons, Inc. --><path d="M0 400c0 61.9 50.1 112 112 112l376 0 24 0 0-24 0-176 0-24-24 0-102.1 0 79-79 17-17-17-17L337 47l-17-17L303 47l-79 79L224 24l0-24L200 0 24 0 0 0 0 24 0 400zm209.9 64l128-128L464 336l0 128-254.1 0zM414.1 192L224 382.1l0-188.1 96-96L414.1 192zM112 464c-35.3 0-64-28.7-64-64l0-96 128 0 0 96c0 35.3-28.7 64-64 64zM48 256l0-80 128 0 0 80L48 256zm0-128l0-80 128 0 0 80L48 128zm64 296a24 24 0 1 0 0-48 24 24 0 1 0 0 48z"/></svg>
